!!!COM:	Bach, Johann Sebastian
!!!CDT:	1685/02/21/-1750/07/28/
!!!OTL@@DE:	Herzliebster Jesu, was hast du verbrochen
!!!SCT:	BWV 245/3
!!!PC#:	59
!!!AGN:	chorale
**kern	**kern	**kern	**kern
*ICvox	*ICvox	*ICvox	*ICvox
*Ibass	*Itenor	*Ialto	*Isoprn
*I"Bass	*I"Tenor	*I"Alto	*I"Soprano
*clefF4	*clefGv2	*clefG2	*clefG2
*k[b-e-]	*k[b-e-]	*k[b-e-]	*k[b-e-]
*g:	*g:	*g:	*g:
*M4/4	*M4/4	*M4/4	*M4/4
*met(c)	*met(c)	*met(c)	*met(c)
*MM100	*MM100	*MM100	*MM100
4G	4B-	4d	4g
=1	=1	=1	=1
8CL	4B-	8e-L	4g
8DJ	.	8dJ	.
4E-	8AL	4c	4g
.	8GJ	.	.
4D	4A	4d	4f#
4C	4F#	4A	4d
=2	=2	=2	=2
4BB-	4G	8dL	4g
.	.	8eJ	.
4AA	4c	4f#	4a
4GG	4d	4g	4b-
4G	4d	4g	4b-
=3	=3	=3	=3
4F#	4e-	4a	4cc
4G	4d	4g	4b-
4D;	4d;	4f#;	4a;
4D	4d	4f#	4a
=4	=4	=4	=4
4G	4d	4g	4b-
4c	4e-	4a	4cc
4B-	8fnXL	4b-	8ddL
.	8e-J	.	8ccJ
4A-	8dL	4fnX	4b-
.	8cJ	.	.
=5	=5	=5	=5
4G	4B-	8gL	4ee-
.	.	8aJ	.
4G-	8B-L	4b-	4ee-
.	8cJ	.	.
4F	8dL	4b-	4dd
.	8B-J	.	.
4E	4g	4b-	8dd-L
.	.	.	8ccJ
=6	=6	=6	=6
2F	4.f	4b-	2cc
.	.	4a	.
.	8e-	.	.
4BB-;	4d;	4f;	4b-;
4GGnX	4d	8gL	4b-
.	.	8fJ	.
=7	=7	=7	=7
4C	4c	8e-L	4a
.	.	8dJ	.
4C#	4B-	4e	4g
4D	4A	4d	4f
8DL	4F	4A	8dL
8CJ	.	.	8e-J
=8	=8	=8	=8
8BB-L	4B-	8dL	4f
8CJ	.	8e-J	.
8DL	4B-	4f	4f
8BB-J	.	.	.
4E-	4B-	8fL	4g
.	.	8e-J	.
8FL	4A	8e-L	4f
8FFJ	.	8dJ	.
=9	=9	=9	=9
4GG	4B-	8dL	2e-
.	.	16cL	.
.	.	16B-JJ	.
4AA	4F	4c	.
4BB-;	4F;	4B-;	4d;
4BB-	4f	4b-	4dd
=10	=10	=10	=10
8FF#L	4e-	4a	4cc
8F#XJ	.	.	.
4G	4d	4g	8b-L
.	.	.	8aJ
4C#	4e	4g	2a
4D	8dL	4f#	.
.	8cJ	.	.
=11	=11	=11	=11
2.GG;	2.B;	2.d;	2.g;
==	==	==	==
*-	*-	*-	*-
!!!hum2abc: -Q ''
!!!title: @{PC#}. @{OTL@@DE}
!!!YOR1: 371 vierstimmige Choralges&auml;nge von Johann Sebastian Bach, 
!!!YOR2: 4th ed. by Alfred D&ouml;rffel (Leipzig: Breitkopf und H&auml;rtel, 
!!!YOR2: c.1875). 178 pp. Plate "V.A.10".  reprint: J.S. Bach, 371 Four-Part 
!!!YOR4: Chorales (New York: Associated Music Publishers, Inc., c.1940).
!!!SMS: B&H, 4th ed, Alfred D&ouml;rffel, c.1875, plate V.A.10
!!!EED:  Craig Stuart Sapp
!!!EEV:  2009/05/22
